X: 93
T: Tant fuz gentement
N: Derived from Ock3021-Tant_fuz_gentement.krn
C: Johannes Ockeghem
%%abc-version 2.0
%%abcx-abcm2ps-target-version 5.9.1 (29 Sep 2008)
%%abc-creator hum2abc beta
%%abcx-conversion-date 2019/02/17 07:26:16
%%abc-edited-by Jesse Rodin
%%abc-edited-by Chris Gage 06-25-2012
%%abcx-initial-encoding-date 2012/06/25/
%%humdrum-veritas 4069513999
%%humdrum-veritas-data 870354510
%%linebreak <none>
%%barnumbers 0
L: 1/4
M: 4/2
Q: 1/2=120
V: 1 clef=treble
V: 2 clef=treble-8
V: 3 clef=treble-8
K: C
[V:1] D4E4- | 
[V:2] D4A4- | 
[V:3] A4c4- | 
[V:1] E4E4 | 
[V:2] A4A4 | 
[V:3] c4c4 | 
[V:1] F6G2 | 
[V:2] A4A4- | 
[V:3] c4c4- | 
[V:1] A4G4 | 
[V:2] A4B4 | 
[V:3] c4d4 | 
[V:1] F2D2E4 | 
[V:2] c8 | 
[V:3] A8 | 
[V:1] D8 | 
[V:2] d8- | 
[V:3] D8 | 
[V:1] z4D4 | 
[V:2] d8 | 
[V:3] G4F4 | 
[V:1] F4F4 | 
[V:2] z4d4 | 
[V:3] D8- | 
[V:1] A4A4 | 
[V:2] f4f4 | 
[V:3] D8 | 
[V:1] G6F2 | 
[V:2] e4d4 | 
[V:3] G8 | 
[V:1] E8 | 
[V:2] ^c8 | 
[V:3] A8 | 
[V:1] F6ED | 
[V:2] d8 | 
[V:3] z4_B4 | 
[V:1] C4C4 | 
[V:2] e4A4 | 
[V:3] A4F4- | 
[V:1] D4E4 | 
[V:2] B4c4 | 
[V:3] F2G2E4 | 
[V:1] F4F4- | 
[V:2] d6c2 | 
[V:3] D8 | 
[V:1] F4E4- | 
[V:2] A4G4 | 
[V:3] z4C4 | 
[V:1] E2DCD4 | 
[V:2] F8 | 
[V:3] D8 | 
[V:1] E8 | 
[V:2] E8- | 
[V:3] A,8 | 
[V:1] z8 | 
[V:2] E8 | 
[V:3] C6D2 | 
[V:1] G8 | 
[V:2] z8 | 
[V:3] E6F2 | 
[V:1] G4G4 | 
[V:2] E8 | 
[V:3] G6A2 | 
[V:1] G4A4 | 
[V:2] E4F4 | 
[V:3] B4A4 | 
[V:1] B4c4- | 
[V:2] G4A4 | 
[V:3] G4F4- | 
[V:1] c2A2A4- | 
[V:2] c8 | 
[V:3] F4A4 | 
[V:1] A4^G4 | 
[V:2] B8 | 
[V:3] E8 | 
[V:1] A8 | 
[V:2] A8 | 
[V:3] F6GA | 
[V:1] z4D4 | 
[V:2] G4F4 | 
[V:3] _B4A4 | 
[V:1] C4C4 | 
[V:2] E8 | 
[V:3] z4G4 | 
[V:1] D8 | 
[V:2] z4D4 | 
[V:3] F4A4- | 
[V:1] E8 | 
[V:2] C4C4 | 
[V:3] A2G2E4 | 
[V:1] F6ED | 
[V:2] D8 | 
[V:3] A4_B4 | 
[V:1] C4F2G2 | 
[V:2] E4D4 | 
[V:3] G4A4- | 
[V:1] A2G4F2 | 
[V:2] F2G2A4 | 
[V:3] A2B2c4 | 
[V:1] E2D2C4 | 
[V:2] G2F2E4 | 
[V:3] B2A2G4 | 
[V:1] F8 | 
[V:2] z4A4 | 
[V:3] A4F4 | 
[V:1] D6E2 | 
[V:2] _B4G4 | 
[V:3] G6FE | 
[V:1] F4E4- | 
[V:2] F4G4 | 
[V:3] D4C4- | 
[V:1] E4D4- | 
[V:2] _B8 | 
[V:3] C4D4 | 
[V:1] D2B,2^C4 | 
[V:2] A8 | 
[V:3] F6G2 | 
[V:1] D8- | 
[V:2] D8- | 
[V:3] _B8 | 
[V:1] D8 ||  
[V:2] D8 ||  
[V:3] A8 ||  
[V:1]  [K:C] [K:clef=treble][M:2/1]A6B2 | 
[V:2]  [K:C] [K:clef=treble-8][M:2/1]d8 | 
[V:3]  [K:C] [K:clef=treble-8][M:2/1]D8 | 
[V:1] c4c4 | 
[V:2] e4e4 | 
[V:3] A4A4 | 
[V:1] d4d4 | 
[V:2] f4f4 | 
[V:3] D4D4 | 
[V:1] d6c2 | 
[V:2] f6ed | 
[V:3] F6G2 | 
[V:1] A4A4 | 
[V:2] c4d4 | 
[V:3] A4B4 | 
[V:1] G6AB | 
[V:2] e4e4 | 
[V:3] c8 | 
[V:1] c6BA | 
[V:2] e4e4 | 
[V:3] A6B2 | 
[V:1] G4z4 | 
[V:2] e4f4 | 
[V:3] c4F4 | 
[V:1] F4A4 | 
[V:2] d8 | 
[V:3] z4D4- | 
[V:1] A4B4 | 
[V:2] f4e4- | 
[V:3] D4G4 | 
[V:1] c4d2c2 | 
[V:2] e4d4- | 
[V:3] A4B4 | 
[V:1] B2A2A4- | 
[V:2] d4c4 | 
[V:3] G4A4 | 
[V:1] A4^G4 | 
[V:2] B8 | 
[V:3] d8 | 
[V:1] A8 | 
[V:2] A8- | 
[V:3] e8 | 
[V:1] z4A4 | 
[V:2] A8 | 
[V:3] c8 | 
[V:1] c6BA | 
[V:2] z4A4 | 
[V:3] F8 | 
[V:1] G4F4 | 
[V:2] B8 | 
[V:3] E4D4 | 
[V:1] E6F2 | 
[V:2] c6d2 | 
[V:3] A6GF | 
[V:1] G4A4- | 
[V:2] e4f4- | 
[V:3] E4D4- | 
[V:1] A4G4 | 
[V:2] f4e4- | 
[V:3] D4E4 | 
[V:1] F8 | 
[V:2] e4d4- | 
[V:3] F6G2 | 
[V:1] E8 | 
[V:2] d4^c4 | 
[V:3] A8 | 
[V:1] D8- | 
[V:2] d8 | 
[V:3] _B8 | 
[V:1] D8 |]  
[V:2] D8 |]  
[V:3] A8 |]  



